X:2458
T:Cameronian Reel, The
R:reel
D:De Danann: Mist Covered Mountain
D:Mary Bergin: Feadoga Stain 2
Z:id:hn-reel-551
M:C|
K:D
A2FA DAFA|GE~E2 GBdB|A2FA DAFA|GBAG FDDF|
AF~F2 dF~F2|GE~E2 GBdB|A2FA DAFA|GBAG FDD2:|
|:Addc d2dA|(3Bcd ef gfed|(3cBA eA fAed|(3Bcd ef gfeg|
faeg faeg|fddc defg|(3agf ge fdec|dBAG FDD2:|
"variations"
|:A2FA DAFA|GFEF GBdB|A2FA DAFA|GBAG FDdB|
AF~F2 DF~F2|GFEF GBdB|A2FA DAFA|GBAG FDD2:|
|:Addc d2cd|edef gfed|(3cBA eA fAed|(3cBA ed cdeg|
faeg faeg|fdfe defg|afge fdec|dABG FDD2:|


